svgs/onestop.svg

﻿<svg width="192" height="192" viewBox="0 0 192 192" fill="none" xmlns="http://www.w3.org/2000/svg">
<path d="M162 100C162 96.1531 160.769 92.4133 158.496 89.3592C156.224 86.3051 153.037 84.1069 149.43 83.1045C145.822 82.1021 141.993 82.3515 138.537 83.814C135.08 85.2766 132.189 87.8708 130.308 91.1954C128.428 94.52 127.665 98.3897 128.136 102.206C128.607 106.022 130.286 109.572 132.914 112.307C135.542 115.042 138.973 116.809 142.675 117.336C146.377 117.862 150.144 117.118 153.394 115.218" stroke="black" stroke-width="10" stroke-linecap="round" stroke-linejoin="round"/>
<path d="M162 100.438H128" stroke="black" stroke-width="10" stroke-linecap="round"/>
<path d="M73.4194 91.2097C73.4194 94.6516 72.7414 98.0598 71.4243 101.24C70.1071 104.42 68.1765 107.309 65.7427 109.743C63.3089 112.177 60.4196 114.107 57.2397 115.424C54.0598 116.741 50.6516 117.419 47.2097 117.419C43.7678 117.419 40.3596 116.741 37.1797 115.424C33.9998 114.107 31.1104 112.177 28.6766 109.743C26.2428 107.309 24.3123 104.42 22.9951 101.24C21.6779 98.0598 21 94.6516 21 91.2097C21 87.7678 21.6779 84.3596 22.9951 81.1797C24.3123 77.9998 26.2428 75.1104 28.6766 72.6766C31.1104 70.2428 33.9998 68.3123 37.1797 66.9951C40.3596 65.6779 43.7678 65 47.2097 65C50.6516 65 54.0598 65.6779 57.2397 66.9951C60.4196 68.3123 63.3089 70.2428 65.7427 72.6766C68.1765 75.1104 70.1071 77.9998 71.4243 81.1797C72.7414 84.3596 73.4194 87.7678 73.4194 91.2097L73.4194 91.2097Z" stroke="black" stroke-width="10" stroke-linecap="round" stroke-linejoin="round"/>
<circle cx="171" cy="116" r="5" fill="black"/>
<path d="M115.032 117.484V96.5161C115.032 88.4992 108.533 82 100.516 82C92.4992 82 86 88.4992 86 96.5161V117.484" stroke="black" stroke-width="10" stroke-linecap="round"/>
</svg>

<svg xmlns="http://www.w3.org/2000/svg" width="192" height="192" stroke-linecap="round" stroke-width="10" viewBox="0 0 192 192"><path fill="none" stroke="#000" d="M162 100c0-3.847-1.231-7.587-3.504-10.64-2.272-3.055-5.459-5.253-9.066-6.255a16.547 16.547 0 0 0-10.893.709c-3.457 1.463-6.348 4.057-8.229 7.381a17.931 17.931 0 0 0-2.172 11.011c.471 3.816 2.15 7.366 4.778 10.101 2.628 2.735 6.059 4.502 9.761 5.029a16.59 16.59 0 0 0 10.719-2.118m8.606-14.78h-34M73.42 91.21a26.213 26.213 0 0 1-16.18 24.214 26.213 26.213 0 0 1-34.245-14.184A26.211 26.211 0 0 1 47.21 65a26.209 26.209 0 0 1 26.21 26.21h0Zm41.612 26.274V96.516c0-8.017-6.499-14.516-14.516-14.516S86 88.5 86 96.516v20.968"/><circle cx="171" cy="116" r="5"/></svg>
